public/images/edit_profile.svg

<svg width="446" height="381" viewBox="0 0 446 381" fill="none" xmlns="http://www.w3.org/2000/svg">
<g clip-path="url(#clip0_1658_3031)">
<path d="M377.454 268.447H0V0H377.454V268.447Z" fill="white"/>
<path d="M30.7468 110.256C29.7714 110.256 28.836 110.644 28.1462 111.334C27.4565 112.025 27.0691 112.961 27.0691 113.938C27.0691 114.915 27.4565 115.851 28.1462 116.542C28.836 117.232 29.7714 117.62 30.7468 117.62H158.214C159.188 117.618 160.122 117.23 160.81 116.539C161.498 115.849 161.885 114.913 161.885 113.938C161.885 112.963 161.498 112.027 160.81 111.337C160.122 110.646 159.188 110.258 158.214 110.256H30.7468Z" fill="#47A138"/>
<path d="M30.7468 132.349C29.7714 132.347 28.8351 132.733 28.144 133.422C27.4528 134.111 27.0634 135.046 27.0613 136.023C27.0592 137 27.4448 137.937 28.133 138.629C28.8213 139.321 29.7559 139.711 30.7313 139.713H158.308C159.283 139.713 160.219 139.325 160.909 138.635C161.598 137.944 161.986 137.007 161.986 136.031C161.986 135.054 161.598 134.118 160.909 133.427C160.219 132.737 159.283 132.349 158.308 132.349H30.7468Z" fill="#47A138"/>
<path d="M30.7468 154.126C29.7714 154.124 28.8351 154.51 28.144 155.199C27.4528 155.888 27.0634 156.824 27.0613 157.8C27.0592 158.777 27.4448 159.714 28.133 160.406C28.8213 161.098 29.7559 161.488 30.7313 161.49H59.4398C60.4152 161.49 61.3507 161.102 62.0404 160.412C62.7301 159.721 63.1176 158.785 63.1176 157.808C63.1176 156.832 62.7301 155.895 62.0404 155.204C61.3507 154.514 60.4152 154.126 59.4398 154.126H30.7468Z" fill="#47A138"/>
<path d="M377.454 268.447H0V0H377.454V268.447ZM6.20473 262.235H371.249V6.21219H6.20473V262.235Z" fill="#E5E5E5"/>
<path d="M258.687 209.461C256.933 209.459 255.25 210.153 254.008 211.393C252.766 212.632 252.066 214.315 252.062 216.07C252.059 217.826 252.751 219.512 253.988 220.756C255.225 222.001 256.905 222.703 258.659 222.708H321.828C322.697 222.709 323.558 222.538 324.361 222.206C325.165 221.873 325.895 221.385 326.51 220.77C327.125 220.155 327.613 219.425 327.946 218.621C328.278 217.817 328.45 216.955 328.45 216.084C328.45 215.214 328.278 214.352 327.946 213.548C327.613 212.744 327.125 212.014 326.51 211.399C325.895 210.783 325.165 210.296 324.361 209.963C323.558 209.631 322.697 209.46 321.828 209.461H258.687Z" fill="#E4E4E4"/>
<path d="M258.687 129.25C256.933 129.248 255.25 129.942 254.008 131.182C252.766 132.421 252.066 134.104 252.062 135.86C252.059 137.615 252.751 139.301 253.988 140.545C255.225 141.79 256.905 142.492 258.659 142.497H321.828C322.697 142.498 323.558 142.327 324.361 141.995C325.165 141.662 325.895 141.174 326.51 140.559C327.125 139.944 327.613 139.214 327.946 138.41C328.278 137.606 328.45 136.744 328.45 135.873C328.45 135.003 328.278 134.141 327.946 133.337C327.613 132.533 327.125 131.803 326.51 131.188C325.895 130.573 325.165 130.085 324.361 129.752C323.558 129.42 322.697 129.249 321.828 129.25H258.687Z" fill="#E4E4E4"/>
<path d="M30.7468 212.528C30.2638 212.527 29.7854 212.622 29.3388 212.806C28.8922 212.99 28.4862 213.26 28.144 213.601C27.8018 213.943 27.53 214.348 27.3442 214.794C27.1585 215.241 27.0623 215.719 27.0613 216.203C27.0603 216.686 27.1544 217.165 27.3383 217.612C27.5222 218.06 27.7922 218.466 28.133 218.809C28.4738 219.151 28.8787 219.423 29.3245 219.609C29.7703 219.795 30.2483 219.892 30.7313 219.893H158.308C159.283 219.893 160.219 219.505 160.909 218.814C161.598 218.124 161.986 217.187 161.986 216.211C161.986 215.234 161.598 214.297 160.909 213.607C160.219 212.916 159.283 212.528 158.308 212.528H30.7468Z" fill="#E4E4E4"/>
<path d="M30.7468 234.306C30.2638 234.305 29.7854 234.399 29.3388 234.583C28.8922 234.767 28.4862 235.037 28.144 235.379C27.8018 235.72 27.53 236.125 27.3442 236.572C27.1585 237.018 27.0623 237.497 27.0613 237.98C27.0603 238.464 27.1544 238.943 27.3383 239.39C27.5222 239.837 27.7922 240.243 28.133 240.586C28.4738 240.929 28.8787 241.201 29.3245 241.387C29.7703 241.573 30.2483 241.669 30.7313 241.67H59.4398C60.4152 241.67 61.3507 241.282 62.0404 240.592C62.7301 239.901 63.1176 238.964 63.1176 237.988C63.1176 237.011 62.7301 236.075 62.0404 235.384C61.3507 234.694 60.4152 234.306 59.4398 234.306H30.7468Z" fill="#E4E4E4"/>
<path d="M30.7468 190.436C29.7714 190.436 28.836 190.823 28.1462 191.514C27.4565 192.205 27.0691 193.141 27.0691 194.118C27.0691 195.094 27.4565 196.031 28.1462 196.721C28.836 197.412 29.7714 197.8 30.7468 197.8H158.214C159.188 197.798 160.122 197.409 160.81 196.719C161.498 196.029 161.885 195.093 161.885 194.118C161.885 193.142 161.498 192.207 160.81 191.516C160.122 190.826 159.188 190.437 158.214 190.436H30.7468Z" fill="#E4E4E4"/>
<path d="M30.7468 30.0762C29.7714 30.0762 28.836 30.4641 28.1462 31.1547C27.4565 31.8452 27.0691 32.7818 27.0691 33.7584C27.0691 34.7349 27.4565 35.6715 28.1462 36.362C28.836 37.0526 29.7714 37.4405 30.7468 37.4405H158.214C159.188 37.4387 160.122 37.0499 160.81 36.3596C161.498 35.6692 161.885 34.7337 161.885 33.7584C161.885 32.783 161.498 31.8475 160.81 31.1571C160.122 30.4668 159.188 30.078 158.214 30.0762H30.7468Z" fill="#E4E4E4"/>
<path d="M30.7468 52.1699C30.2638 52.1689 29.7854 52.2631 29.3388 52.4473C28.8922 52.6314 28.4862 52.9017 28.144 53.2429C27.8018 53.5841 27.53 53.9895 27.3442 54.4358C27.1585 54.8822 27.0623 55.3608 27.0613 55.8443C27.0603 56.3279 27.1544 56.8069 27.3383 57.254C27.5222 57.7012 27.7922 58.1077 28.133 58.4503C28.4738 58.793 28.8787 59.065 29.3245 59.251C29.7703 59.437 30.2483 59.5333 30.7313 59.5343H158.308C158.791 59.5343 159.269 59.439 159.715 59.254C160.162 59.069 160.567 58.7977 160.909 58.4558C161.25 58.1139 161.521 57.708 161.706 57.2612C161.891 56.8145 161.986 56.3357 161.986 55.8521C161.986 55.3686 161.891 54.8897 161.706 54.443C161.521 53.9963 161.25 53.5903 160.909 53.2484C160.567 52.9065 160.162 52.6353 159.715 52.4502C159.269 52.2652 158.791 52.1699 158.308 52.1699H30.7468Z" fill="#E4E4E4"/>
<path d="M30.7468 73.9463C29.7714 73.9442 28.8351 74.3302 28.144 75.0193C27.4528 75.7084 27.0634 76.6441 27.0613 77.6207C27.0592 78.5973 27.4448 79.5347 28.133 80.2267C28.8213 80.9187 29.7559 81.3086 30.7313 81.3106H59.4398C60.4152 81.3106 61.3507 80.9227 62.0404 80.2322C62.7301 79.5416 63.1176 78.605 63.1176 77.6285C63.1176 76.6519 62.7301 75.7153 62.0404 75.0248C61.3507 74.3342 60.4152 73.9463 59.4398 73.9463H30.7468Z" fill="#E4E4E4"/>
<path d="M258.687 49.1016C256.933 49.0991 255.25 49.794 254.008 51.0334C252.766 52.2728 252.066 53.9553 252.062 55.7111C252.059 57.4669 252.751 59.1524 253.988 60.397C255.225 61.6416 256.905 62.3436 258.659 62.3485H321.828C322.697 62.3494 323.558 62.1787 324.361 61.8463C325.165 61.5138 325.895 61.026 326.51 60.4109C327.125 59.7958 327.613 59.0653 327.946 58.2613C328.278 57.4573 328.45 56.5954 328.45 55.7251C328.45 54.8547 328.278 53.9929 327.946 53.1888C327.613 52.3848 327.125 51.6543 326.51 51.0392C325.895 50.4241 325.165 49.9363 324.361 49.6038C323.558 49.2714 322.697 49.1007 321.828 49.1016H258.687Z" fill="#E4E4E4"/>
<path d="M271.995 67.5411C278.547 67.5411 283.859 62.2229 283.859 55.6626C283.859 49.1023 278.547 43.7842 271.995 43.7842C265.442 43.7842 260.13 49.1023 260.13 55.6626C260.13 62.2229 265.442 67.5411 271.995 67.5411Z" fill="#CACACA"/>
<path d="M293.226 138.814L293.226 138.811C293.421 137.325 294.154 135.963 295.285 134.982C296.416 134.001 297.867 133.47 299.363 133.489C300.859 133.508 302.297 134.075 303.403 135.084C304.509 136.093 305.207 137.474 305.364 138.964L305.374 139.049L305.411 139.127L314.3 157.711L306.094 159.319L299.958 146.016L299.818 145.713L299.484 145.726C298.597 145.761 297.712 145.6 296.893 145.256C296.074 144.912 295.341 144.392 294.744 143.733C294.147 143.074 293.702 142.292 293.44 141.442C293.177 140.592 293.104 139.695 293.226 138.814Z" stroke="black"/>
<path d="M356.554 190.441L330.849 177.71L312.71 146.888L300.031 153.028L316.485 188.635L358.052 212.659L356.554 190.441Z" fill="#3F3D56"/>
<path d="M298.022 349.824L298.021 372.151L290.864 372.15L287.184 349.823L298.022 349.824Z" stroke="black"/>
<path d="M300.581 380.493L274.526 380.492V380.162C274.526 377.47 275.595 374.887 277.497 372.983C279.398 371.079 281.978 370.009 284.667 370.009H284.668L300.582 370.009L300.581 380.493Z" fill="#2F2E41"/>
<path d="M378.474 357.822L373.48 362.955L354.938 350.017L362.5 342.244L378.474 357.822Z" stroke="black"/>
<path d="M386.23 361.805L368.05 380.493L367.814 380.263C365.887 378.384 364.785 375.815 364.75 373.123C364.714 370.43 365.748 367.834 367.625 365.904L378.729 354.49L386.23 361.805Z" fill="#2F2E41"/>
<path d="M308.511 233.825H302.922C288.393 249.721 277.302 268.452 270.346 288.843L263.67 308.415L287.466 358.298L302.314 358.563L285.343 305.604L302.441 282.903L303.303 328.537L358.334 357.417L369.348 341.127L324.568 316.611L332.194 277.795C332.194 277.795 347.537 264.985 338.602 244.958L308.511 233.825Z" fill="#2F2E41"/>
<path d="M382.068 183.026L358.843 172.842L333.281 184.183C333.281 184.183 326.043 188.305 330.656 198.864L302.922 233.825C302.922 233.825 302.973 233.839 337.829 244.958L369.276 217.23C374.051 213.02 377.717 207.697 379.948 201.731C382.179 195.765 382.907 189.34 382.068 183.026Z" fill="#3F3D56"/>
<path d="M378.17 172.541C387.111 172.541 394.359 165.285 394.359 156.333C394.359 147.382 387.111 140.125 378.17 140.125C369.229 140.125 361.981 147.382 361.981 156.333C361.981 165.285 369.229 172.541 378.17 172.541Z" fill="#47A138"/>
<path d="M399.136 134.824C395.42 131.797 389.658 131.137 385.822 134.008C379.133 130.493 370.093 132.327 365.297 138.172C363.571 140.275 362.349 143.12 363.203 145.704C364.057 148.289 367.739 149.808 369.658 147.88L369.624 148.674C371.353 150.407 372.551 152.599 373.079 154.991C373.606 157.383 373.441 159.876 372.602 162.177C371.763 164.478 370.285 166.491 368.342 167.98C366.4 169.469 364.073 170.372 361.635 170.582C366.94 172.728 372.245 174.873 377.55 177.019C379.782 177.922 382.085 178.839 384.492 178.827C386.9 178.814 389.466 177.643 390.4 175.422C391.071 177.483 391.743 179.544 392.415 181.605C396.369 175.307 399.621 168.594 402.114 161.586C403.72 157.068 405.018 152.344 404.845 147.552C404.671 142.76 402.851 137.85 399.136 134.824Z" fill="#2F2E41"/>
<path d="M271.995 227.899C278.547 227.899 283.859 222.581 283.859 216.021C283.859 209.461 278.547 204.143 271.995 204.143C265.442 204.143 260.13 209.461 260.13 216.021C260.13 222.581 265.442 227.899 271.995 227.899Z" fill="#CACACA"/>
<path d="M308.905 147.752C315.458 147.752 320.77 142.434 320.77 135.874C320.77 129.313 315.458 123.995 308.905 123.995C302.353 123.995 297.041 129.313 297.041 135.874C297.041 142.434 302.353 147.752 308.905 147.752Z" fill="#47A138"/>
<path d="M309.704 132.215L309.704 132.212C309.9 130.726 310.632 129.364 311.763 128.383C312.894 127.402 314.345 126.871 315.841 126.89C317.337 126.909 318.775 127.477 319.881 128.486C320.987 129.495 321.685 130.875 321.843 132.365L321.852 132.451L321.889 132.528L330.778 151.112L322.572 152.721L316.436 139.417L316.296 139.114L315.962 139.127C315.075 139.162 314.19 139.002 313.371 138.657C312.552 138.313 311.819 137.793 311.222 137.134C310.625 136.475 310.18 135.693 309.918 134.843C309.655 133.993 309.583 133.096 309.704 132.215Z" stroke="black"/>
<path d="M373.032 183.841L347.327 171.111L329.188 140.288L316.509 146.429L332.963 182.036L374.53 206.06L373.032 183.841Z" fill="#3F3D56"/>
<path d="M433.368 381H182.242C182.068 381 181.9 380.931 181.776 380.807C181.653 380.683 181.583 380.516 181.583 380.341C181.583 380.166 181.653 379.998 181.776 379.874C181.9 379.75 182.068 379.681 182.242 379.681H433.368C433.543 379.681 433.71 379.75 433.834 379.874C433.957 379.998 434.027 380.166 434.027 380.341C434.027 380.516 433.957 380.683 433.834 380.807C433.71 380.931 433.543 381 433.368 381Z" fill="#CACACA"/>
</g>
<defs>
<clipPath id="clip0_1658_3031">
<rect width="446" height="381" fill="white"/>
</clipPath>
</defs>
</svg>

<svg xmlns="http://www.w3.org/2000/svg" width="446" height="381" fill="none"><g clip-path="url(#a)"><path fill="#fff" d="M377.454 268.447H0V0h377.454z"/><path fill="#47A138" d="M30.747 110.256a3.68 3.68 0 0 0-3.678 3.682 3.678 3.678 0 0 0 3.678 3.682h127.467a3.67 3.67 0 0 0 2.596-1.081 3.685 3.685 0 0 0 0-5.202 3.67 3.67 0 0 0-2.596-1.081zM30.747 132.349a3.676 3.676 0 0 0-3.686 3.674 3.684 3.684 0 0 0 3.67 3.69h127.577a3.68 3.68 0 0 0 3.678-3.682 3.68 3.68 0 0 0-3.678-3.682zM30.747 154.126a3.676 3.676 0 0 0-3.686 3.674 3.684 3.684 0 0 0 3.67 3.69H59.44a3.677 3.677 0 0 0 3.678-3.682 3.677 3.677 0 0 0-3.678-3.682z"/><path fill="#E5E5E5" d="M377.454 268.447H0V0h377.454zm-371.25-6.212H371.25V6.212H6.205z"/><path fill="#E4E4E4" d="M258.687 209.461a6.6 6.6 0 0 0-4.679 1.932 6.63 6.63 0 0 0-.02 9.363 6.6 6.6 0 0 0 4.671 1.952h63.169a6.61 6.61 0 0 0 6.118-4.087 6.65 6.65 0 0 0 0-5.073 6.62 6.62 0 0 0-6.118-4.087zM258.687 129.25a6.6 6.6 0 0 0-4.679 1.932 6.63 6.63 0 0 0-.02 9.363 6.6 6.6 0 0 0 4.671 1.952h63.169a6.61 6.61 0 0 0 6.118-4.087 6.65 6.65 0 0 0 0-5.073 6.62 6.62 0 0 0-6.118-4.087zM30.747 212.528a3.68 3.68 0 0 0-3.403 2.266 3.69 3.69 0 0 0 .789 4.015 3.69 3.69 0 0 0 2.598 1.084h127.577a3.676 3.676 0 0 0 3.678-3.682 3.676 3.676 0 0 0-3.678-3.683zM30.747 234.306a3.676 3.676 0 0 0-3.686 3.674 3.685 3.685 0 0 0 2.264 3.407c.445.186.923.282 1.406.283H59.44a3.677 3.677 0 0 0 3.678-3.682 3.677 3.677 0 0 0-3.678-3.682zM30.747 190.436c-.976 0-1.911.387-2.6 1.078a3.685 3.685 0 0 0 0 5.207 3.67 3.67 0 0 0 2.6 1.079h127.467a3.677 3.677 0 0 0 3.671-3.682c0-.976-.387-1.911-1.075-2.602a3.67 3.67 0 0 0-2.596-1.08zM30.747 30.076a3.684 3.684 0 0 0 0 7.364h127.467a3.68 3.68 0 0 0 2.596-1.08 3.686 3.686 0 0 0 0-5.203 3.68 3.68 0 0 0-2.596-1.08zM30.747 52.17a3.67 3.67 0 0 0-3.403 2.266 3.687 3.687 0 0 0 1.98 4.815c.446.186.924.282 1.407.283h127.577a3.67 3.67 0 0 0 2.601-1.078 3.7 3.7 0 0 0 1.077-2.604 3.683 3.683 0 0 0-3.678-3.682zM30.747 73.946a3.68 3.68 0 0 0-2.603 1.073 3.684 3.684 0 0 0 2.587 6.292H59.44a3.676 3.676 0 0 0 3.678-3.683c0-.976-.388-1.913-1.078-2.603a3.68 3.68 0 0 0-2.6-1.079zM258.687 49.102a6.6 6.6 0 0 0-4.679 1.931 6.63 6.63 0 0 0-.02 9.364 6.6 6.6 0 0 0 4.671 1.952h63.169a6.6 6.6 0 0 0 4.682-1.938 6.627 6.627 0 0 0-4.682-11.31z"/><path fill="#CACACA" d="M271.995 67.541c6.552 0 11.864-5.318 11.864-11.878s-5.312-11.879-11.864-11.879-11.865 5.318-11.865 11.879c0 6.56 5.312 11.878 11.865 11.878"/><path stroke="#000" d="M293.226 138.814v-.003a6.12 6.12 0 0 1 2.059-3.829 6.105 6.105 0 0 1 8.118.102 6.12 6.12 0 0 1 1.961 3.88l.01.085.037.078 8.889 18.584-8.206 1.608-6.136-13.303-.14-.303-.334.013a6.075 6.075 0 0 1-6.044-4.284 6.1 6.1 0 0 1-.214-2.628Z"/><path fill="#3F3D56" d="m356.554 190.441-25.705-12.731-18.139-30.822-12.679 6.14 16.454 35.607 41.567 24.024z"/><path stroke="#000" d="m298.022 349.824-.001 22.327-7.157-.001-3.68-22.327z"/><path fill="#2F2E41" d="m300.581 380.493-26.055-.001v-.33a10.16 10.16 0 0 1 2.971-7.179 10.13 10.13 0 0 1 7.17-2.974h15.915z"/><path stroke="#000" d="m378.474 357.822-4.994 5.133-18.542-12.938 7.562-7.773z"/><path fill="#2F2E41" d="m386.23 361.805-18.18 18.688-.236-.23a10.16 10.16 0 0 1-3.064-7.14 10.16 10.16 0 0 1 2.875-7.219l11.104-11.414zM308.511 233.825h-5.589a156.4 156.4 0 0 0-32.576 55.018l-6.676 19.572 23.796 49.883 14.848.265-16.971-52.959 17.098-22.701.862 45.634 55.031 28.88 11.014-16.29-44.78-24.516 7.626-38.816s15.343-12.81 6.408-32.837z"/><path fill="#3F3D56" d="m382.068 183.026-23.225-10.184-25.562 11.341s-7.238 4.122-2.625 14.681l-27.734 34.961s.051.014 34.907 11.133l31.447-27.728a38.77 38.77 0 0 0 10.672-15.499 38.8 38.8 0 0 0 2.12-18.705"/><path fill="#47A138" d="M378.17 172.541c8.941 0 16.189-7.256 16.189-16.208s-7.248-16.208-16.189-16.208-16.189 7.257-16.189 16.208c0 8.952 7.248 16.208 16.189 16.208"/><path fill="#2F2E41" d="M399.136 134.824c-3.716-3.027-9.478-3.687-13.314-.816-6.689-3.515-15.729-1.681-20.525 4.164-1.726 2.103-2.948 4.948-2.094 7.532.854 2.585 4.536 4.104 6.455 2.176l-.034.794a12.87 12.87 0 0 1 2.978 13.503 12.86 12.86 0 0 1-4.26 5.803 12.83 12.83 0 0 1-6.707 2.602l15.915 6.437c2.232.903 4.535 1.82 6.942 1.808s4.974-1.184 5.908-3.405l2.015 6.183a102 102 0 0 0 9.699-20.019c1.606-4.518 2.904-9.242 2.731-14.034s-1.994-9.702-5.709-12.728"/><path fill="#CACACA" d="M271.995 227.899c6.552 0 11.864-5.318 11.864-11.878s-5.312-11.878-11.864-11.878-11.865 5.318-11.865 11.878 5.312 11.878 11.865 11.878"/><path fill="#47A138" d="M308.905 147.752c6.553 0 11.865-5.318 11.865-11.878s-5.312-11.879-11.865-11.879c-6.552 0-11.864 5.318-11.864 11.879 0 6.56 5.312 11.878 11.864 11.878"/><path stroke="#000" d="M309.704 132.215v-.003a6.13 6.13 0 0 1 2.059-3.829 6.105 6.105 0 0 1 8.118.103 6.12 6.12 0 0 1 1.962 3.879l.009.086.037.077 8.889 18.584-8.206 1.609-6.136-13.304-.14-.303-.334.013a6.073 6.073 0 0 1-6.044-4.284 6.1 6.1 0 0 1-.214-2.628Z"/><path fill="#3F3D56" d="m373.032 183.841-25.705-12.73-18.139-30.823-12.679 6.141 16.454 35.607 41.567 24.024z"/><path fill="#CACACA" d="M433.368 381H182.242a.66.66 0 0 1 0-1.319h251.126a.66.66 0 0 1 .659.66.66.66 0 0 1-.659.659"/></g><defs><clipPath id="a"><path fill="#fff" d="M0 0h446v381H0z"/></clipPath></defs></svg>
